icons/line/briefcase.svg

<svg width="24" height="24" viewBox="0 0 24 24" fill="none" xmlns="http://www.w3.org/2000/svg">
<path d="M8 7H5C3.89543 7 3 7.89543 3 9V13M8 7V5C8 3.89543 8.89543 3 10 3H14C15.1046 3 16 3.89543 16 5V7M8 7H16M16 7H19C20.1046 7 21 7.89543 21 9V13M3 13V19C3 20.1046 3.89543 21 5 21H19C20.1046 21 21 20.1046 21 19V13M3 13H8M21 13H16M8 13H16M8 13V15M8 13V11M16 13V11M16 13V15" stroke="currentColor" stroke-width="2" stroke-linecap="round" stroke-linejoin="round"/>
</svg>

<svg width="24" height="24" fill="none" xmlns="http://www.w3.org/2000/svg"><path d="M8 7H5a2 2 0 00-2 2v4m5-6V5a2 2 0 012-2h4a2 2 0 012 2v2M8 7h8m0 0h3a2 2 0 012 2v4M3 13v6a2 2 0 002 2h14a2 2 0 002-2v-6M3 13h5m13 0h-5m-8 0h8m-8 0v2m0-2v-2m8 2v-2m0 2v2" stroke="currentColor" stroke-width="2" stroke-linecap="round" stroke-linejoin="round"/></svg>
